Dominus_Funeral/22/apps/time-admin.svg

<svg xmlns="http://www.w3.org/2000/svg" width="24" height="24" viewBox="0 0 6.35 6.35"><defs><linearGradient id="a"><stop offset="0"/><stop offset="1" stop-opacity="0"/></linearGradient></defs><path d="M2.77.17a.13.13 0 0 0-.12.13c-.12.51-.45 2-.75 3C1.42 4.83.74 5.96.74 5.96l.25.14s.68-1.12 1.15-2.67h.1a1.02 1.02 0 0 0 .51 1.26l-.18.1a1.02 1.02 0 0 0-.32 1.17h-.1v.2h2.1v-.2h-.1a1.02 1.02 0 0 0-.51-1.27 1.02 1.02 0 0 0 .51-1.26h.1v-.22H2.2c.24-.82.48-1.86.61-2.47a68.07 68.07 0 0 0 0-.03v.02l.28.1a52.55 52.55 0 0 1-.05.25 5.1 5.1 0 0 1 2.56 1.45C5.32 1.47 3.8.8 3.16.55L2.89.46l-.02.02A68.07 68.07 0 0 0 2.91.3a.13.13 0 0 0-.14-.13zm-.3 3.27h1.46l.01.04a.81.81 0 0 1-.53 1.08v.28a.8.8 0 0 1 .53 1.08l-.01.05H3.7a.52.52 0 0 0-.4-.62v-.87a.71.71 0 0 0 .54-.42H2.54a.72.72 0 0 0 .55.42v.87a.52.52 0 0 0-.4.62h-.22l-.02-.05a.81.81 0 0 1 .54-1.08v-.28a.8.8 0 0 1-.54-1.08z" fill="#1a1a1a" stroke-width=".65"/></svg>

<?xml version="1.0" encoding="UTF-8" standalone="no"?>
<svg
   xmlns:dc="http://purl.org/dc/elements/1.1/"
   xmlns:cc="http://creativecommons.org/ns#"
   xmlns:rdf="http://www.w3.org/1999/02/22-rdf-syntax-ns#"
   xmlns:svg="http://www.w3.org/2000/svg"
   xmlns="http://www.w3.org/2000/svg"
   xmlns:sodipodi="http://sodipodi.sourceforge.net/DTD/sodipodi-0.dtd"
   xmlns:inkscape="http://www.inkscape.org/namespaces/inkscape"
   width="24"
   height="24"
   viewBox="0 0 6.35 6.35"
   version="1.1"
   id="svg11"
   sodipodi:docname="time-admin.svg"
   inkscape:version="0.92.4 (5da689c313, 2019-01-14)">
  <metadata
     id="metadata15">
    <rdf:RDF>
      <cc:Work
         rdf:about="">
        <dc:format>image/svg+xml</dc:format>
        <dc:type
           rdf:resource="http://purl.org/dc/dcmitype/StillImage" />
        <dc:title></dc:title>
      </cc:Work>
    </rdf:RDF>
  </metadata>
  <sodipodi:namedview
     pagecolor="#ffffff"
     bordercolor="#666666"
     borderopacity="1"
     objecttolerance="10"
     gridtolerance="10"
     guidetolerance="10"
     inkscape:pageopacity="0"
     inkscape:pageshadow="2"
     inkscape:window-width="1138"
     inkscape:window-height="480"
     id="namedview13"
     showgrid="false"
     inkscape:zoom="9.8333333"
     inkscape:cx="1.0677966"
     inkscape:cy="12"
     inkscape:window-x="0"
     inkscape:window-y="25"
     inkscape:window-maximized="0"
     inkscape:current-layer="svg11" />
  <defs
     id="defs7">
    <linearGradient
       id="a">
      <stop
         offset="0"
         id="stop2" />
      <stop
         offset="1"
         stop-opacity="0"
         id="stop4" />
    </linearGradient>
  </defs>
  <path
     d="M 2.77,0.17 A 0.13,0.13 0 0 0 2.65,0.3 C 2.53,0.81 2.2,2.3 1.9,3.3 1.42,4.83 0.74,5.96 0.74,5.96 L 0.99,6.1 c 0,0 0.68,-1.12 1.15,-2.67 h 0.1 A 1.02,1.02 0 0 0 2.75,4.69 L 2.57,4.79 A 1.02,1.02 0 0 0 2.25,5.96 h -0.1 v 0.2 h 2.1 V 5.96 H 4.15 A 1.02,1.02 0 0 0 3.64,4.69 1.02,1.02 0 0 0 4.15,3.43 h 0.1 V 3.21 H 2.2 C 2.44,2.39 2.68,1.35 2.81,0.74 a 68.07,68.07 0 0 0 0,-0.03 v 0.02 l 0.28,0.1 A 52.55,52.55 0 0 1 3.04,1.08 5.1,5.1 0 0 1 5.6,2.53 C 5.32,1.47 3.8,0.8 3.16,0.55 L 2.89,0.46 2.87,0.48 A 68.07,68.07 0 0 0 2.91,0.3 0.13,0.13 0 0 0 2.77,0.17 Z M 2.47,3.44 H 3.93 L 3.94,3.48 A 0.81,0.81 0 0 1 3.41,4.56 V 4.84 A 0.8,0.8 0 0 1 3.94,5.92 L 3.93,5.97 H 3.7 A 0.52,0.52 0 0 0 3.3,5.35 V 4.48 A 0.71,0.71 0 0 0 3.84,4.06 H 2.54 A 0.72,0.72 0 0 0 3.09,4.48 V 5.35 A 0.52,0.52 0 0 0 2.69,5.97 H 2.47 L 2.45,5.92 A 0.81,0.81 0 0 1 2.99,4.84 V 4.56 A 0.8,0.8 0 0 1 2.45,3.48 Z"
     id="path9"
     inkscape:connector-curvature="0"
     style="fill:#1a1a1a;stroke-width:0.64999998" />
</svg>
